X: 11682
T: Eilish Brogan
R: reel
M: 4/4
K: Gmajor
|:GABG AGAB|GE E2 GE D2|GABG AGAB|GEDE G3D|
GABG ADAB|GE E2 GE D2|GABG AGAB|GEDE G3D:|
|:G2 (3Bcd edge|dB B2 dBAB|G2 (3Bcd edge|dBAG EGGD|
G2 (3Bcd edge|dB B2 dega|bgag efge|dBAG EG G2:|

